icons/night/dartlang.svg

<svg width="16" height="16" viewBox="0 0 16 16" fill="none" xmlns="http://www.w3.org/2000/svg">
<path d="M13.151 7.015V11.735H11.151L11.091 11.665L3.681 4.235H10.291C10.384 4.266 10.471 4.31 10.551 4.365L10.671 4.465L13.081 6.945L13.151 7.015Z" fill="#3D59A1"/>
<path d="M10.681 4.565L10.561 4.465C10.4808 4.40982 10.3933 4.36607 10.301 4.335H3.681L7.261 2.415C7.47142 2.30853 7.70532 2.25693 7.941 2.265C8.255 2.287 8.551 2.422 8.771 2.645L10.681 4.565Z" fill="#27A1B9"/>
<path d="M11.111 11.735L7.5 11.695L4.321 11.735L4.091 11.515L4.021 11.435C3.90572 11.3237 3.80795 11.1956 3.731 11.055C3.679 10.8766 3.66203 10.6898 3.681 10.505V4.225L11.111 11.735Z" fill="#0DB9D7"/>
<path d="M3.871 11.225L2.061 9.435C1.82495 9.18989 1.68936 8.86519 1.681 8.525V8.255L1.761 8.055L3.681 4.225V10.505C3.67815 10.6685 3.70526 10.8312 3.761 10.985C3.78494 11.0702 3.82206 11.1512 3.871 11.225Z" fill="#3D59A1"/>
<path d="M11.111 11.695H4.321H7.5H11.111Z" fill="#2CB7F6"/>
<path d="M11.111 11.695V13.735H6.361L4.321 11.695H11.111Z" fill="#0DB9D7"/>
</svg>

<svg xmlns="http://www.w3.org/2000/svg" fill="none" viewBox="0 0 16 16"><path
    fill="#3d59a1"
    d="M13.151 7.015v4.72h-2l-.06-.07-7.41-7.43H10.291c.093.031.18.075.26.13l.12.1 2.41 2.48.07.07Z"
  /><path
    fill="#27a1b9"
    d="m10.681 4.565-.12-.1a1.05 1.05 0 0 0-.26-.13h-6.62l3.58-1.92a1.4 1.4 0 0 1 .68-.15c.314.022.61.157.83.38l1.91 1.92Z"
  /><path
    fill="#0db9d7"
    d="m11.111 11.735-3.54-1.17-3.25 1.17-.23-.22-.07-.08a1.589 1.589 0 0 1-.29-.38 1.44 1.44 0 0 1-.05-.55v-6.28l7.43 7.51Z"
  /><path
    fill="#3d59a1"
    d="m3.871 11.225-1.81-1.79a1.36 1.36 0 0 1-.38-.91v-.27l.08-.2 1.92-3.83v6.28a1.34 1.34 0 0 0 .08.48.85.85 0 0 0 .11.24Z"
  /><path fill="#2CB7F6" d="M11.111 11.695h-6.79l3.25-1.13 3.54 1.13Z" /><path
    fill="#0db9d7"
    d="M11.111 11.695v2.04h-4.75l-2.04-2.04h6.79Z"
  /></svg>
